X:1
T:[ID 11-21c]
T:[ID 11-21c]
T:Bezeichnung standardisiert: Nro 3 Nro 3
T:Urheber unbekannt Datum in der hier transkribierten schriftlichen Quelle: vermutlich um 1800
C:Urheber unbekannt
C:Datum in der hier transkribierten schriftlichen Quelle: vermutlich um 1800
L:1/8
M:3/4
K:Bb
V:1 treble 
V:1
 F2 | BABcde | f2 dFdF | e2 cFcF | d2 BFBF | BABcde | f2 dFdF | f2 cFcd | B4 :: F2 | BABcde | %11
 dfbfdf | egceAc | BABFDF | BABcde | dfbfdf | egceAc | B4 :| %18

